fs/calendar_question_mark_24_regular.svg

<svg viewBox="0 0 24 24" fill="none" xmlns="http://www.w3.org/2000/svg" height="1em" width="1em">
  <path d="M21 6.25C21 4.45507 19.5449 3 17.75 3H6.25C4.45507 3 3 4.45507 3 6.25V17.75C3 19.5449 4.45507 21 6.25 21H12.0218C11.7253 20.5368 11.4858 20.0335 11.3135 19.5H6.25C5.2835 19.5 4.5 18.7165 4.5 17.75V8.5H19.5V11.3135C20.0335 11.4858 20.5368 11.7253 21 12.0218V6.25ZM6.25 4.5H17.75C18.7165 4.5 19.5 5.2835 19.5 6.25V7H4.5V6.25C4.5 5.2835 5.2835 4.5 6.25 4.5ZM23 17.5C23 14.4624 20.5376 12 17.5 12C14.4624 12 12 14.4624 12 17.5C12 20.5376 14.4624 23 17.5 23C20.5376 23 23 20.5376 23 17.5ZM16.8755 20.3755C16.8755 20.0306 17.1551 19.751 17.5 19.751C17.8449 19.751 18.1245 20.0306 18.1245 20.3755C18.1245 20.7204 17.8449 21 17.5 21C17.1551 21 16.8755 20.7204 16.8755 20.3755ZM15.6467 15.8284C15.6358 14.6915 16.4521 13.8741 17.5 13.8741C18.5311 13.8741 19.3534 14.7199 19.3534 15.8236C19.3534 16.333 19.2034 16.6653 18.8251 17.1162L18.6905 17.2713L18.4247 17.5617L18.3238 17.6772L18.2389 17.7813C18.0585 18.0126 18 18.1684 18 18.3716C18 18.6477 17.7762 18.8716 17.5 18.8716C17.2239 18.8716 17 18.6477 17 18.3716C17 17.854 17.1513 17.5182 17.5347 17.0615L17.6711 16.9043L17.9365 16.6142L18.0355 16.5009L18.1295 16.3851C18.2981 16.1659 18.3534 16.0158 18.3534 15.8236C18.3534 15.266 17.9724 14.8741 17.5 14.8741C17.0063 14.8741 16.6411 15.2398 16.6466 15.8188C16.6493 16.0949 16.4276 16.3209 16.1514 16.3235C15.8753 16.3262 15.6493 16.1045 15.6467 15.8284Z" fill="#212121"/>
</svg>

<svg viewBox="0 0 24 24" fill="none" xmlns="http://www.w3.org/2000/svg" height="1em" width="1em">
  <path d="M21 6.25A3.25 3.25 0 0 0 17.75 3H6.25A3.25 3.25 0 0 0 3 6.25v11.5A3.25 3.25 0 0 0 6.25 21h5.772a6.471 6.471 0 0 1-.709-1.5H6.25a1.75 1.75 0 0 1-1.75-1.75V8.5h15v2.813a6.471 6.471 0 0 1 1.5.709V6.25ZM6.25 4.5h11.5c.966 0 1.75.784 1.75 1.75V7h-15v-.75c0-.966.784-1.75 1.75-1.75ZM23 17.5a5.5 5.5 0 1 0-11 0 5.5 5.5 0 0 0 11 0Zm-6.125 2.875a.625.625 0 1 1 1.25 0 .625.625 0 0 1-1.25 0Zm-1.228-4.547c-.011-1.136.805-1.954 1.853-1.954 1.031 0 1.853.846 1.853 1.95 0 .509-.15.841-.528 1.292l-.134.155-.266.29-.101.116-.085.104c-.18.232-.239.387-.239.59a.5.5 0 1 1-1 0c0-.517.151-.853.535-1.31l.136-.157.265-.29.1-.113.093-.116c.17-.22.224-.37.224-.561 0-.558-.38-.95-.853-.95-.494 0-.859.366-.853.945a.5.5 0 1 1-1 .01Z" fill="#212121"/>
</svg>
